X:72
T:Julia's Wedding
C:Joe Buchanan's Scottish Tome - Page 246.3
I:246 3
Z:Carl Allison
R:Hornpipe
L:1/8
M:4/4
K:G
"D7"d>c | "G"B>Gc>G B>GA>F | G>FG>A B>de>f | "C"g>fg>e "D"d>BA>c | "G"B>GA>F G>DE>F |
G2 B>G A>GE>F | G>FG>A "D"B>de>f | "C"g>fg>e d>BG>B | "D"A>DE>F "G"G2 :|
B>c | "Bm"d>BG>B "D"e>cA>c | "G"g>fg>a g>dB>d | b>ag>b "D"a>gf>a | "C"g>fg>e "D"d>cB>c |
"G"d>BG>B "D7"e>cA>c | "C"g>fg>a "G"g>dB>d | b>ag>b "D"a>gf>g | f>de>f "G"g2 :|
W:Errata: Added "G" chord to last note in A section to match B section.

